**harm	**harte	**timestamp	**phrase	**leadinstrument	**kern
*M4/4	*M4/4	*	*	*	*
*c:	*c:	*	*	*	*c:
1r;	N	0	.	r	1r;
=1	=1	=1	=1	=1	=1
*>A_intro	*>A_intro	*>A_intro	*>A_intro	*>A_intro	*>A_intro
1i	C:min	2.902	newline	synthesizer	1C 1e- 1g
1r;	N	4.923	.	r	1r;
=2	=2	=2	=2	=2	=2
1i	C:min	6.943	.	r	1C 1e- 1g
=3	=3	=3	=3	=3	=3
1i	C:min	8.963	.	r	1C 1e- 1g
=4	=4	=4	=4	=4	=4
1-VIb	A-:maj/3	10.983	newline	r	1a-- 1C- 1ee--
=5	=5	=5	=5	=5	=5
1-VIIe	B-:maj/2	13.204	.	r	1B- 1dd 1ff
=6	=6	=6	=6	=6	=6
1i	C:min	15.425	.	r	1C 1e- 1g
=7	=7	=7	=7	=7	=7
1i	C:min	17.647	.	r	1C 1e- 1g
=8	=8	=8	=8	=8	=8
1-VIb	A-:maj/3	19.868	newline	synthesizer	1a-- 1C- 1ee--
=9	=9	=9	=9	=9	=9
1-VIIe	B-:maj/2	22.075	.	synthesizer	1B- 1dd 1ff
=10	=10	=10	=10	=10	=10
1i	C:min	24.283	.	synthesizer	1C 1e- 1g
=11	=11	=11	=11	=11	=11
*>B_verse	*>B_verse	*>B_verse	*>B_verse	*>B_verse	*>B_verse
2-VIb	A-:maj/3	26.49	newline	voice	2a-- 2C- 2ee--
2-VIIe	B-:maj/2	27.599	.	voice	2B- 2dd 2ff
=12	=12	=12	=12	=12	=12
2i	C:min	28.708	.	voice	2C 2e- 2g
2i7	C:min9	29.817	.	voice	2C 2e- 2g 2b
=13	=13	=13	=13	=13	=13
2-VIb	A-:maj/3	30.926	.	voice	2a-- 2C- 2ee--
2-VIIe	B-:maj/2	32.035	.	voice	2B- 2dd 2ff
=14	=14	=14	=14	=14	=14
2i	C:min	33.144	.	voice	2C 2e- 2g
2i7	C:min9	34.253	.	voice	2C 2e- 2g 2b
=15	=15	=15	=15	=15	=15
2-VIb	A-:maj/3	35.362	newline	voice	2a-- 2C- 2ee--
2-VIIe	B-:maj/2	36.477	.	voice	2B- 2dd 2ff
=16	=16	=16	=16	=16	=16
2i	C:min	37.592	.	voice	2C 2e- 2g
2i7	C:min9	38.708	.	voice	2C 2e- 2g 2b
=17	=17	=17	=17	=17	=17
2-VIb	A-:maj/3	39.823	.	voice	2a-- 2C- 2ee--
2-VIIe	B-:maj/2	40.938	.	voice	2B- 2dd 2ff
=18	=18	=18	=18	=18	=18
*>C_prechorus	*>C_prechorus	*>C_prechorus	*>C_prechorus	*>C_prechorus	*>C_prechorus
2iv7c	F:min7/5	42.053	newline	voice	2f 2a- 2C 2e-
2i7	C:min9	43.147	.	voice	2C 2e- 2g 2b
=19	=19	=19	=19	=19	=19
1iv7c	F:min7/5	44.24	.	voice	1f 1a- 1C 1e-
=20	=20	=20	=20	=20	=20
2iv7c	F:min7/5	46.427	.	voice	2f 2a- 2C 2e-
2i7	C:min9	47.521	.	voice	2C 2e- 2g 2b
=21	=21	=21	=21	=21	=21
1iv7c	F:min7/5	48.614	.	voice	1f 1a- 1C 1e-
=22	=22	=22	=22	=22	=22
*>D_chorus	*>D_chorus	*>D_chorus	*>D_chorus	*>D_chorus	*>D_chorus
1-VIb	A-:maj/3	50.801	newline	voice	1a-- 1C- 1ee--
=23	=23	=23	=23	=23	=23
1-VIIe	B-:maj/2	53.008	.	voice	1B- 1dd 1ff
=24	=24	=24	=24	=24	=24
1i	C:min	55.214	.	voice	1C 1e- 1g
=25	=25	=25	=25	=25	=25
1i	C:min	57.421	.	voice	1C 1e- 1g
=26	=26	=26	=26	=26	=26
1-VIb	A-:maj/3	59.628	newline	voice	1a-- 1C- 1ee--
=27	=27	=27	=27	=27	=27
1-VIIe	B-:maj/2	61.884	.	voice	1B- 1dd 1ff
=28	=28	=28	=28	=28	=28
1i	C:min	64.141	.	voice	1C 1e- 1g
=29	=29	=29	=29	=29	=29
1i	C:min	66.397	.	voice	1C 1e- 1g
=30	=30	=30	=30	=30	=30
1-VIb	A-:maj/3	68.653	newline	voice	1a-- 1C- 1ee--
=31	=31	=31	=31	=31	=31
1-VIIe	B-:maj/2	70.852	.	voice	1B- 1dd 1ff
=32	=32	=32	=32	=32	=32
1i	C:min	73.05	.	voice	1C 1e- 1g
=33	=33	=33	=33	=33	=33
1-VIb	A-:maj/3	75.248	.	voice	1a-- 1C- 1ee--
=34	=34	=34	=34	=34	=34
1-VIb	A-:maj/3	77.446	newline	voice	1a-- 1C- 1ee--
=35	=35	=35	=35	=35	=35
1-VIIe	B-:maj/2	79.68	.	voice	1B- 1dd 1ff
=36	=36	=36	=36	=36	=36
1i	C:min	81.914	.	voice	1C 1e- 1g
=37	=37	=37	=37	=37	=37
*>B_verse	*>B_verse	*>B_verse	*>B_verse	*>B_verse	*>B_verse
2-VIb	A-:maj/3	84.148	newline	voice	2a-- 2C- 2ee--
2-VIIe	B-:maj/2	85.262	.	voice	2B- 2dd 2ff
=38	=38	=38	=38	=38	=38
2i	C:min	86.376	.	voice	2C 2e- 2g
2i7	C:min9	87.49	.	voice	2C 2e- 2g 2b
=39	=39	=39	=39	=39	=39
2-VIb	A-:maj/3	88.604	.	voice	2a-- 2C- 2ee--
2-VIIe	B-:maj/2	89.718	.	voice	2B- 2dd 2ff
=40	=40	=40	=40	=40	=40
2i	C:min	90.833	.	voice	2C 2e- 2g
2i7	C:min9	91.947	.	voice	2C 2e- 2g 2b
=41	=41	=41	=41	=41	=41
2-VIb	A-:maj/3	93.061	newline	voice	2a-- 2C- 2ee--
2-VIIe	B-:maj/2	94.167	.	voice	2B- 2dd 2ff
=42	=42	=42	=42	=42	=42
2i	C:min	95.274	.	voice	2C 2e- 2g
2i7	C:min9	96.38	.	voice	2C 2e- 2g 2b
=43	=43	=43	=43	=43	=43
2-VIb	A-:maj/3	97.487	.	voice	2a-- 2C- 2ee--
2-VIIe	B-:maj/2	98.593	.	voice	2B- 2dd 2ff
=44	=44	=44	=44	=44	=44
2i	C:min	99.7	.	voice	2C 2e- 2g
2i7	C:min9	100.807	.	voice	2C 2e- 2g 2b
=45	=45	=45	=45	=45	=45
2-VIb	A-:maj/3	101.913	newline	voice	2a-- 2C- 2ee--
2-VIIe	B-:maj/2	103.026	.	voice	2B- 2dd 2ff
=46	=46	=46	=46	=46	=46
2i	C:min	104.14	.	voice	2C 2e- 2g
2i7	C:min9	105.253	.	voice	2C 2e- 2g 2b
=47	=47	=47	=47	=47	=47
2-VIb	A-:maj/3	106.367	.	voice	2a-- 2C- 2ee--
2-VIIe	B-:maj/2	107.48	.	voice	2B- 2dd 2ff
=48	=48	=48	=48	=48	=48
*>C_prechorus	*>C_prechorus	*>C_prechorus	*>C_prechorus	*>C_prechorus	*>C_prechorus
2iv7c	F:min7/5	108.593	newline	voice	2f 2a- 2C 2e-
2i7	C:min9	109.692	.	voice	2C 2e- 2g 2b
=49	=49	=49	=49	=49	=49
1iv7c	F:min7/5	110.79	.	voice	1f 1a- 1C 1e-
=50	=50	=50	=50	=50	=50
2iv7c	F:min7/5	112.986	.	voice	2f 2a- 2C 2e-
2i7	C:min9	114.084	.	voice	2C 2e- 2g 2b
=51	=51	=51	=51	=51	=51
1iv7c	F:min7/5	115.182	.	voice	1f 1a- 1C 1e-
=52	=52	=52	=52	=52	=52
2iv7c	F:min7/5	117.379	newline	voice	2f 2a- 2C 2e-
2i7	C:min9	118.496	.	voice	2C 2e- 2g 2b
=53	=53	=53	=53	=53	=53
1iv7c	F:min7/5	119.614	.	voice	1f 1a- 1C 1e-
=54	=54	=54	=54	=54	=54
*>D_chorus	*>D_chorus	*>D_chorus	*>D_chorus	*>D_chorus	*>D_chorus
1-VIb	A-:maj/3	121.849	newline	voice	1a-- 1C- 1ee--
=55	=55	=55	=55	=55	=55
1-VIIe	B-:maj/2	124.059	.	voice	1B- 1dd 1ff
=56	=56	=56	=56	=56	=56
1i	C:min	126.268	.	voice	1C 1e- 1g
=57	=57	=57	=57	=57	=57
1i	C:min	128.477	.	voice	1C 1e- 1g
=58	=58	=58	=58	=58	=58
1-VIb	A-:maj/3	130.686	newline	voice	1a-- 1C- 1ee--
=59	=59	=59	=59	=59	=59
1-VIIe	B-:maj/2	132.923	.	voice	1B- 1dd 1ff
=60	=60	=60	=60	=60	=60
1i	C:min	135.16	.	voice	1C 1e- 1g
=61	=61	=61	=61	=61	=61
1i	C:min	137.396	.	voice	1C 1e- 1g
=62	=62	=62	=62	=62	=62
1-VIb	A-:maj/3	139.633	newline	voice	1a-- 1C- 1ee--
=63	=63	=63	=63	=63	=63
1-VIIe	B-:maj/2	141.852	.	voice	1B- 1dd 1ff
=64	=64	=64	=64	=64	=64
1i	C:min	144.071	.	voice	1C 1e- 1g
=65	=65	=65	=65	=65	=65
1-VIb	A-:maj/3	146.289	.	voice	1a-- 1C- 1ee--
=66	=66	=66	=66	=66	=66
1-VIb	A-:maj/3	148.508	newline	voice	1a-- 1C- 1ee--
=67	=67	=67	=67	=67	=67
1-VIIe	B-:maj/2	150.721	.	voice	1B- 1dd 1ff
=68	=68	=68	=68	=68	=68
1i	C:min	152.935	.	voice	1C 1e- 1g
=69	=69	=69	=69	=69	=69
*>C_prechorus	*>C_prechorus	*>C_prechorus	*>C_prechorus	*>C_prechorus	*>C_prechorus
2iv7c	F:min7/5	155.148	newline	voice	2f 2a- 2C 2e-
2i7	C:min9	156.26	.	voice	2C 2e- 2g 2b
=70	=70	=70	=70	=70	=70
1iv7c	F:min7/5	157.371	.	voice	1f 1a- 1C 1e-
=71	=71	=71	=71	=71	=71
2iv7c	F:min7/5	159.595	.	voice	2f 2a- 2C 2e-
2i7	C:min9	160.707	.	voice	2C 2e- 2g 2b
=72	=72	=72	=72	=72	=72
1iv7c	F:min7/5	161.819	.	voice	1f 1a- 1C 1e-
=73	=73	=73	=73	=73	=73
2iv7c	F:min7/5	164.042	newline	voice	2f 2a- 2C 2e-
2i7	C:min9	165.15	.	voice	2C 2e- 2g 2b
=74	=74	=74	=74	=74	=74
1iv7c	F:min7/5	166.258	.	voice	1f 1a- 1C 1e-
=75	=75	=75	=75	=75	=75
*>E_bridge	*>E_bridge	*>E_bridge	*>E_bridge	*>E_bridge	*>E_bridge
1-VIb	A-:maj/3	168.473	newline	voice	1a-- 1C- 1ee--
=76	=76	=76	=76	=76	=76
1-VIIe	B-:maj/2	170.695	.	voice	1B- 1dd 1ff
=77	=77	=77	=77	=77	=77
1i	C:min	172.917	.	voice	1C 1e- 1g
=78	=78	=78	=78	=78	=78
1i	C:min	175.139	.	voice	1C 1e- 1g
=79	=79	=79	=79	=79	=79
1-VIb	A-:maj/3	177.36	newline	voice	1a-- 1C- 1ee--
=80	=80	=80	=80	=80	=80
1-VIIe	B-:maj/2	179.58	.	voice	1B- 1dd 1ff
=81	=81	=81	=81	=81	=81
1i	C:min	181.8	.	voice	1C 1e- 1g
=82	=82	=82	=82	=82	=82
1i	C:min	184.02	.	voice	1C 1e- 1g
=83	=83	=83	=83	=83	=83
*>F_interlude	*>F_interlude	*>F_interlude	*>F_interlude	*>F_interlude	*>F_interlude
1-VIb	A-:maj/3	186.24	newline	synthesizer	1a-- 1C- 1ee--
=84	=84	=84	=84	=84	=84
1-VIIe	B-:maj/2	188.506	.	synthesizer	1B- 1dd 1ff
=85	=85	=85	=85	=85	=85
1i	C:min	190.771	.	synthesizer	1C 1e- 1g
=86	=86	=86	=86	=86	=86
1-VIb	A-:maj/3	193.036	.	synthesizer	1a-- 1C- 1ee--
=87	=87	=87	=87	=87	=87
1-VIb	A-:maj/3	195.301	newline	synthesizer	1a-- 1C- 1ee--
=88	=88	=88	=88	=88	=88
1-VIIe	B-:maj/2	197.476	.	synthesizer	1B- 1dd 1ff
=89	=89	=89	=89	=89	=89
1i	C:min	199.651	.	synthesizer	1C 1e- 1g
=90	=90	=90	=90	=90	=90
1i	C:min	201.825	.	synthesizer	1C 1e- 1g
=91	=91	=91	=91	=91	=91
*>D_chorus	*>D_chorus	*>D_chorus	*>D_chorus	*>D_chorus	*>D_chorus
1-VIb	A-:maj/3	204	newline	voice	1a-- 1C- 1ee--
=92	=92	=92	=92	=92	=92
1-VIIe	B-:maj/2	206.201	.	voice	1B- 1dd 1ff
=93	=93	=93	=93	=93	=93
1i	C:min	208.401	.	voice	1C 1e- 1g
=94	=94	=94	=94	=94	=94
1i	C:min	210.602	.	voice	1C 1e- 1g
=95	=95	=95	=95	=95	=95
1-VIb	A-:maj/3	212.802	newline	voice	1a-- 1C- 1ee--
=96	=96	=96	=96	=96	=96
1-VIIe	B-:maj/2	215.01	.	voice	1B- 1dd 1ff
=97	=97	=97	=97	=97	=97
1i	C:min	217.217	.	voice	1C 1e- 1g
=98	=98	=98	=98	=98	=98
1i	C:min	219.424	.	voice	1C 1e- 1g
=99	=99	=99	=99	=99	=99
*>D_chorus	*>D_chorus	*>D_chorus	*>D_chorus	*>D_chorus	*>D_chorus
1-VIb	A-:maj/3	221.631	newline	voice	1a-- 1C- 1ee--
=100	=100	=100	=100	=100	=100
1-VIIe	B-:maj/2	223.879	.	voice	1B- 1dd 1ff
=101	=101	=101	=101	=101	=101
1i	C:min	226.127	.	voice	1C 1e- 1g
=102	=102	=102	=102	=102	=102
1i	C:min	228.374	.	voice	1C 1e- 1g
=103	=103	=103	=103	=103	=103
1-VIb	A-:maj/3	230.622	newline	voice	1a-- 1C- 1ee--
=104	=104	=104	=104	=104	=104
1-VIIe	B-:maj/2	232.832	.	voice	1B- 1dd 1ff
=105	=105	=105	=105	=105	=105
1i	C:min	235.041	.	voice	1C 1e- 1g
=106	=106	=106	=106	=106	=106
1i	C:min	237.251	.	voice	1C 1e- 1g
=107	=107	=107	=107	=107	=107
*>D_chorus	*>D_chorus	*>D_chorus	*>D_chorus	*>D_chorus	*>D_chorus
1-VIb	A-:maj/3	239.46	newline	voice	1a-- 1C- 1ee--
=108	=108	=108	=108	=108	=108
1-VIIe	B-:maj/2	241.691	.	voice	1B- 1dd 1ff
=109	=109	=109	=109	=109	=109
1i	C:min	243.921	.	voice	1C 1e- 1g
=110	=110	=110	=110	=110	=110
1i	C:min	246.151	.	voice	1C 1e- 1g
=111	=111	=111	=111	=111	=111
1-VIb	A-:maj/3	248.381	newline	voice	1a-- 1C- 1ee--
=112	=112	=112	=112	=112	=112
1-VIIe	B-:maj/2	250.591	.	voice	1B- 1dd 1ff
=113	=113	=113	=113	=113	=113
1i	C:min	252.801	.	voice	1C 1e- 1g
=114	=114	=114	=114	=114	=114
1i	C:min	255.011	.	voice	1C 1e- 1g
=115	=115	=115	=115	=115	=115
*>G_outro	*>G_outro	*>G_outro	*>G_outro	*>G_outro	*>G_outro
1-VIb	A-:maj/3	257.221	newline	voice	1a-- 1C- 1ee--
=116	=116	=116	=116	=116	=116
1-VIb	A-:maj/3	259.424	.	voice	1a-- 1C- 1ee--
=117	=117	=117	=117	=117	=117
1-VIIe	B-:maj/2	261.628	.	voice	1B- 1dd 1ff
=118	=118	=118	=118	=118	=118
1-VIIe	B-:maj/2	263.832	.	voice	1B- 1dd 1ff
=119	=119	=119	=119	=119	=119
1i	C:min	266.035	newline	voice	1C 1e- 1g
=120	=120	=120	=120	=120	=120
1i	C:min	268.275	.	voice	1C 1e- 1g
=121	=121	=121	=121	=121	=121
1i	C:min	270.516	.	voice	1C 1e- 1g
=122	=122	=122	=122	=122	=122
1i	C:min	272.756	.	voice	1C 1e- 1g
=123	=123	=123	=123	=123	=123
1i	C:min	274.996	newline	fadeout	1C 1e- 1g
=124	=124	=124	=124	=124	=124
1i	C:min	276.693	.	fadeout	1C 1e- 1g
=125	=125	=125	=125	=125	=125
1i	C:min	278.39	.	fadeout	1C 1e- 1g
=126	=126	=126	=126	=126	=126
1i	C:min	280.087	.	fadeout	1C 1e- 1g
=127	=127	=127	=127	=127	=127
1i	C:min	281.784	newline	fadeout	1C 1e- 1g
=128	=128	=128	=128	=128	=128
1i	C:min	283.475	.	fadeout	1C 1e- 1g
=129	=129	=129	=129	=129	=129
1i	C:min	285.166	.	fadeout	1C 1e- 1g
=130	=130	=130	=130	=130	=130
1i	C:min	286.858	.	fadeout	1C 1e- 1g
1r;	N	294.046	.	r	1r;
1r;	N	301.009	.	r	1r;
*-	*-	*-	*-	*-	*-
!!!OTL: Running Up That Hill
!!!COC: Kate Bush
!!!BillboardChartDate: 1985/12/14
!!!BillboardPeak: 30
!!!BillboardWeeksOnChart: 20
!!!SampleTargetRank: 59
!!!SampleActualRank: 58
!!!SampleID#: 0531
!!!RDF**harmony: **recip + pitch class of root + harmonic quality
!!!RDF**harte: Chris Harte's syntax, used by MIREX
!!!RDF**phrase: newline = linebreak in original McGill transcription
!!!RDF**timestamp: McGill audio timestamp in seconds
!!!RDF**leadinstrument: original McGill primary instrumentation annotation
!!!RDT: 2017/01/12/
!!!ENC: Nathaniel Condit-Schultz
!!!EST: Awating manual error checking and editing.
